icons/help-toolbar.svg

<?xml version="1.0" encoding="UTF-8" standalone="no"?>
<!-- Created with Inkscape (http://www.inkscape.org/) -->

<svg
   xmlns:svg="http://www.w3.org/2000/svg"
   xmlns="http://www.w3.org/2000/svg"
   version="1.0"
   width="55"
   height="55"
   viewBox="0 0 55 55"
   id="svg2"
   style="fill:#010101;stroke:#ffffff;stroke-width:3.5;stroke-linecap:round;stroke-linejoin:round">
  <defs
     id="defs11" />
  <path
     d="m 50,27.625 c 0,12.3431 -10.1569,22.5 -22.5,22.5 C 15.1569,50.125 5,39.9681 5,27.625 5,15.2819 15.1569,5.125 27.5,5.125 c 12.3431,0 22.5,10.1569 22.5,22.5 z"
     id="path6"
     style="fill:#404040;fill-opacity:1" />
  <path
     d="m 23.956,27.167 c 0,-1.621 1.8,-1.89 3.645,-2.386 1.8,-0.495 3.6,-1.215 3.6,-3.825 0,-1.98 -1.845,-3.42 -3.734,-3.42 -3.78,0 -4.365,4.455 -7.246,4.455 -1.62,0 -2.745,-1.26 -2.745,-3.24 0,-4.726 5.94,-7.425 9.991,-7.425 5.806,0 10.756,3.6 10.756,9.631 0,4.995 -3.15,7.921 -7.785,9.091 l 0,1.619 c 0,1.801 -1.351,3.105 -3.241,3.105 -2.025,0 -3.24,-1.305 -3.24,-3.105 l 0,-4.5 -0.001,0 z m -0.27,13.77 c 0,-1.935 1.575,-3.51 3.51,-3.51 1.936,0 3.51,1.575 3.51,3.51 0,1.936 -1.574,3.512 -3.51,3.512 -1.935,-10e-4 -3.51,-1.577 -3.51,-3.512 z"
     id="path8"
     style="fill:#ffffff;stroke:#ffffff;stroke-width:0.25;stroke-miterlimit:4;stroke-opacity:1;stroke-dasharray:none" />
</svg>

<?xml version="1.0" encoding="UTF-8" standalone="no"?>
<svg
   xmlns:svg="http://www.w3.org/2000/svg"
   xmlns="http://www.w3.org/2000/svg"
   version="1.0"
   width="55"
   height="55"
   viewBox="0 0 55 55"
   id="svg2"
   style="fill:#010101;stroke:#ffffff;stroke-width:3.5;stroke-linecap:round;stroke-linejoin:round">
  <defs
     id="defs11" />
  <path
     d="M 50,27.625 C 50,39.9681 39.8431,50.125 27.5,50.125 C 15.1569,50.125 5,39.9681 5,27.625 C 5,15.2819 15.1569,5.125 27.5,5.125 C 39.8431,5.125 50,15.2819 50,27.625 z"
     id="path6" />
  <path
     d="M 23.956,27.167 C 23.956,25.546 25.756,25.277 27.601,24.781 C 29.401,24.286 31.201,23.566 31.201,20.956 C 31.201,18.976 29.356,17.536 27.467,17.536 C 23.687,17.536 23.102,21.991 20.221,21.991 C 18.601,21.991 17.476,20.731 17.476,18.751 C 17.476,14.025 23.416,11.326 27.467,11.326 C 33.273,11.326 38.223,14.926 38.223,20.957 C 38.223,25.952 35.073,28.878 30.438,30.048 L 30.438,31.667 C 30.438,33.468 29.087,34.772 27.197,34.772 C 25.172,34.772 23.957,33.467 23.957,31.667 L 23.957,27.167 L 23.956,27.167 z M 23.686,40.937 C 23.686,39.002 25.261,37.427 27.196,37.427 C 29.132,37.427 30.706,39.002 30.706,40.937 C 30.706,42.873 29.132,44.449 27.196,44.449 C 25.261,44.448 23.686,42.872 23.686,40.937 z"
     id="path8"
     style="fill:#ffffff;stroke:#ffffff;stroke-width:0.25;stroke-miterlimit:4;stroke-dasharray:none;stroke-opacity:1" />
</svg>
